public/formular-icons/operators/Log.svg

<svg style="vertical-align:-.866ex" xmlns="http://www.w3.org/2000/svg" width="4.039ex" height="2.436ex" viewBox="0 -694 1785.3 1076.8" xmlns:xlink="http://www.w3.org/1999/xlink"><defs><path id="a" d="M42 46h14q39 0 47 14v64q0 19 1 43t0 50 0 55 0 57v213q0 26-1 44t0 17q-3 19-14 25t-45 9H26v23q0 23 2 23l10 1q10 1 29 2t37 2 37 2 30 3 11 1h3V379q0-317 1-319 4-8 12-11 21-3 49-3h16V0h-8l-23 1q-23 1-49 1t-38 1-38 0-50-2L34 0h-8v46h16Z"/><path id="b" d="M28 214q0 95 65 164t157 70q90 0 155-68t66-165q0-95-64-160T250-10q-97 0-159 67T28 214ZM250 30q122 0 122 163v57q0 22-1 38t-7 38-16 36-31 28-49 20q-5 1-16 1-30 0-57-12-43-22-56-61t-13-92v-20q0-96 19-135 32-61 105-61Z"/><path id="c" d="M329 409q44 44 100 44 30 0 43-19t13-38q0-14-9-25t-27-11q-33 0-37 30-2 14 3 21 0 1 1 3v1q-28-3-53-22-8-5-8-7 0-1 4-5t9-12 11-18 9-26 4-33q0-62-49-105t-121-44q-50 0-99 28-11-18-11-38 0-35 26-52 9-6 17-6t72-2q84-1 108-6 61-9 96-41 39-39 39-98 0-67-78-103-60-31-142-31-83 0-143 31-78 35-78 100 0 36 21 60t42 33l11 6q-36 31-36 84 0 47 29 85-44 44-44 99 0 63 50 106t121 44q51 0 95-26l11-7Zm-30-66q-5 28-26 44t-52 17q-29 0-50-16t-26-45q-3-17-3-51 0-44 7-65t30-35q17-10 43-10 22 0 38 7t23 18 11 20 5 15q3 16 3 50t-3 51ZM403-75q0 25-14 41t-41 23-49 9-54 2h-27q-67 0-80-6-20-9-31-28T95-74q0-10 6-23t21-30 48-28 80-12q69 0 111 28t42 64Z"/></defs><g stroke="currentColor" fill="currentColor" stroke-width="0"><g><g transform="scale(1 -1)"><use data-c="6C" xlink:href="#a"/><use data-c="6F" xlink:href="#b" transform="translate(278)"/><use data-c="67" xlink:href="#c" transform="translate(778)"/></g><g><text data-variant="normal" transform="matrix(.707 0 0 .707 1311 241.4)" font-size="884" font-family="serif">⬚</text></g></g></g></svg>

<svg style="vertical-align: -0.866ex" xmlns="http://www.w3.org/2000/svg" width="4.039ex" height="2.436ex" role="img" focusable="false" viewBox="0 -694 1785.3 1076.8" xmlns:xlink="http://www.w3.org/1999/xlink"><defs><path id="MJX-19-TEX-N-6C" d="M42 46H56Q95 46 103 60V68Q103 77 103 91T103 124T104 167T104 217T104 272T104 329Q104 366 104 407T104 482T104 542T103 586T103 603Q100 622 89 628T44 637H26V660Q26 683 28 683L38 684Q48 685 67 686T104 688Q121 689 141 690T171 693T182 694H185V379Q185 62 186 60Q190 52 198 49Q219 46 247 46H263V0H255L232 1Q209 2 183 2T145 3T107 3T57 1L34 0H26V46H42Z"></path><path id="MJX-19-TEX-N-6F" d="M28 214Q28 309 93 378T250 448Q340 448 405 380T471 215Q471 120 407 55T250 -10Q153 -10 91 57T28 214ZM250 30Q372 30 372 193V225V250Q372 272 371 288T364 326T348 362T317 390T268 410Q263 411 252 411Q222 411 195 399Q152 377 139 338T126 246V226Q126 130 145 91Q177 30 250 30Z"></path><path id="MJX-19-TEX-N-67" d="M329 409Q373 453 429 453Q459 453 472 434T485 396Q485 382 476 371T449 360Q416 360 412 390Q410 404 415 411Q415 412 416 414V415Q388 412 363 393Q355 388 355 386Q355 385 359 381T368 369T379 351T388 325T392 292Q392 230 343 187T222 143Q172 143 123 171Q112 153 112 133Q112 98 138 81Q147 75 155 75T227 73Q311 72 335 67Q396 58 431 26Q470 -13 470 -72Q470 -139 392 -175Q332 -206 250 -206Q167 -206 107 -175Q29 -140 29 -75Q29 -39 50 -15T92 18L103 24Q67 55 67 108Q67 155 96 193Q52 237 52 292Q52 355 102 398T223 442Q274 442 318 416L329 409ZM299 343Q294 371 273 387T221 404Q192 404 171 388T145 343Q142 326 142 292Q142 248 149 227T179 192Q196 182 222 182Q244 182 260 189T283 207T294 227T299 242Q302 258 302 292T299 343ZM403 -75Q403 -50 389 -34T348 -11T299 -2T245 0H218Q151 0 138 -6Q118 -15 107 -34T95 -74Q95 -84 101 -97T122 -127T170 -155T250 -167Q319 -167 361 -139T403 -75Z"></path></defs><g stroke="currentColor" fill="currentColor" stroke-width="0" transform="scale(1,-1)"><g data-mml-node="math"><g data-mml-node="msub"><g data-mml-node="mi"><use data-c="6C" xlink:href="#MJX-19-TEX-N-6C"></use><use data-c="6F" xlink:href="#MJX-19-TEX-N-6F" transform="translate(278,0)"></use><use data-c="67" xlink:href="#MJX-19-TEX-N-67" transform="translate(778,0)"></use></g><g data-mml-node="TeXAtom" transform="translate(1311,-241.4) scale(0.707)" data-mjx-texclass="ORD"><g data-mml-node="mo"><text data-variant="normal" transform="scale(1,-1)" font-size="884px" font-family="serif">⬚</text></g></g></g></g></g></svg>
